X: 3838
T: Black Joak
R: jig
M: 6/8
K: Gmajor
|:D|D2G G2G|A2A A>GA>|B>cB B>AG|A>BA A>GF|G3 E2D|D>EF G2:|
|:B|B2d d>ed|e>fg d2B|B2d d>ed|e>fg d2B|c>ca B>Bg|
A>BA A>BA|B>cB B>AG|A>BA A>GF|G3 E2D|D>EF G2:|

